!!!OTL: "Der bucklichte Fiedler" ES WOHNET EIN FIEDLER ZU FRANKFURT AM MAIN
!!!ARE: Europa, Mitteleuropa, Deutschland, Westerwald
!!!SCT: Z1047
!!!YEM: Copyright 1995, estate of Helmut Schaffrath.
**kern
*ICvox
*Ivox
*M4/4
*k[]
*a:
{4e
=1
4a
8g#
8g#
4a
8b
8b
=2
4ccn
8b
8a
4b}
{4e
=3
4a
8g#
8g#
4a
8b
8b
=4
4ccn
8b
8a
4b}
{8e
8gn
=5
4ccn
8ccn
8ccn
4gn
8r
8ee
=6
8ee
8dd
8dd
8ccn
4b
8r}
{8b
=7
4ccn
8b
8a
4g#
8r}
{8e
=8
8a
8g#
8a
8b
8ccn
8b
8a
8dd
=9
8ccn
8b
8a
8g#
4a}
==
!!!AGN: Romanze, Ballade
!!!ONB: ESAC (Essen Associative Code) Database: ZUCCAL
!!!AMT: simple quadruple
!!!AIN: vox
!!!EED: Helmut Schaffrath
!!!EEV: 1.0
*-
